X: 29
M: 2/4
L: 1/16
K: D
V: 1
|:\
(3ca^g (3fed c2B2 | A4 :|
a2g2 Aceg | g2f2 fafd |\
gbge fafd | c2A2 Adfa |\
a2g2 Aceg | g2f2 gbge |\
fafd A2c2 | d4 "C"|]
V: 2 clef=bass middle=d
d3e | f2d2 g2g2 | f2d2 d2d2 | f2d2 c2A2 | d2d2 d3e | f2d2 g2g2 |
f2d2 ^g2e2 | a2d2 e2E2 | A4 :| d2d2 | f2e2 c2A2 | d2d2 d2d2 |
e2c2 d2D2 | a2a2 d2d2 | f2e2 c2A2 | d2d2 e2c2 | d2d2 a2A2 |
d4 |] d2d2 | e2c2 d2d2 | A2A2 d2d2 | g2g2 a2A2 |
d2d2 d2d2 | e2c2 d2d2 | A2A2 d2d2 | g2g2 a2A2 | d4 |]


